icons/justice.svg

<svg width="48" height="48" viewBox="0 0 48 48" fill="none" xmlns="http://www.w3.org/2000/svg">
<path fill-rule="evenodd" clip-rule="evenodd" d="M25 10.1707C25.4922 10.3446 25.9254 10.6434 26.2616 11.0288L34.2521 9.0312C34.2677 9.02721 34.2834 9.02359 34.2992 9.02035C34.5282 8.97326 34.7564 9.00886 34.9515 9.10771C34.9972 9.13084 35.0411 9.15744 35.0827 9.18725C35.1936 9.26671 35.2887 9.369 35.3601 9.48939L40.0543 17H42V17.0029C41.9998 17.6925 41.9178 18.3617 41.7637 19C40.9312 22.4505 37.9947 25 34.5 25C31.0053 25 28.0689 22.4505 27.2363 19C27.0821 18.3608 27 17.6906 27 17L28.474 17L32.1789 11.6111L26.9986 12.9061C26.9995 12.9373 27 12.9686 27 13C27 14.3062 26.1652 15.4175 25 15.8293V38H28V40H34V42H14V40H20V38H23V15.8293C22.3419 15.5967 21.7891 15.1409 21.4327 14.5529L15.587 16.1118L20.185 23.2178H21.1199L21.1199 23.2207C21.1196 23.9102 21.0376 24.5794 20.8836 25.2178C20.051 28.6682 17.1146 31.2178 13.6199 31.2178C10.1252 31.2178 7.18874 28.6682 6.35616 25.2178C6.20191 24.5785 6.11987 23.9084 6.11987 23.2178L7.32813 23.2178L13.1831 14.9233C13.3181 14.732 13.5161 14.5941 13.7424 14.5338L21.0277 12.591C21.1811 11.4656 21.9586 10.5388 23 10.1707V6H25V10.1707ZM37.6958 17L34.4602 11.8231L30.901 17.0001L37.6958 17ZM17.8028 23.2178L13.964 17.2851L9.77619 23.2178L17.8028 23.2178ZM39.6903 19C38.9209 21.3852 36.8163 23 34.5 23C32.1838 23 30.0792 21.3852 29.3097 19.0001L39.6903 19ZM18.8102 25.2178C18.0407 27.603 15.9361 29.2178 13.6199 29.2178C11.3037 29.2178 9.19907 27.603 8.42957 25.2178L18.8102 25.2178ZM24 14C24.5523 14 25 13.5523 25 13C25 12.4477 24.5523 12 24 12C23.4477 12 23 12.4477 23 13C23 13.5523 23.4477 14 24 14Z" fill="black"/>
</svg>

<svg
  xmlns="http://www.w3.org/2000/svg"
  width="24"
  height="24"
  viewBox="0 0 24 24"
  fill="none"
  stroke="currentColor"
  stroke-width="2"
  stroke-linecap="round"
  stroke-linejoin="round"
>
  <path
    fill-rule="evenodd"
    d="M25 10.17c.492.175.925.473 1.262.859l7.99-1.998a1 1 0 0 1 .83.156q.17.121.278.302L40.054 17H42v.003c0 .69-.082 1.359-.236 1.997-.833 3.45-3.77 6-7.264 6s-6.431-2.55-7.264-6A8.5 8.5 0 0 1 27 17h1.474l3.705-5.389-5.18 1.295L27 13a3 3 0 0 1-2 2.83V38h3v2h6v2H14v-2h6v-2h3V15.83a3 3 0 0 1-1.567-1.277l-5.846 1.559 4.598 7.106h.935v.003c0 .69-.082 1.358-.236 1.997-.833 3.45-3.77 6-7.264 6s-6.431-2.55-7.264-6a8.5 8.5 0 0 1-.236-2h1.208l5.855-8.295a1 1 0 0 1 .56-.39l7.285-1.942A3 3 0 0 1 23 10.171V6h2zM37.696 17l-3.236-5.177L30.901 17zm-19.893 6.218-3.839-5.933-4.188 5.933zM39.69 19c-.77 2.385-2.874 4-5.19 4s-4.42-1.615-5.19-4zm-20.88 6.218c-.77 2.385-2.874 4-5.19 4s-4.42-1.615-5.19-4zM24 14a1 1 0 1 0 0-2 1 1 0 0 0 0 2"
    clip-rule="evenodd"
  />
</svg>
